dist/img/about/Frame-2.svg

<svg width="76" height="76" viewBox="0 0 76 76" fill="none" xmlns="http://www.w3.org/2000/svg">
<path d="M58.997 47.9146H49.7808C49.3518 47.9134 48.9269 47.9973 48.5305 48.1615C48.1342 48.3257 47.7744 48.5669 47.4719 48.8711L43.1322 53.2107H41.7786V48.6035C41.7777 47.7954 41.1023 47.9837 40.2942 47.9828H35.7063C34.8981 47.9837 34.2228 47.7954 34.2219 48.6035V53.2107H32.3418C32.1056 53.2107 31.8791 53.3045 31.712 53.4715C31.545 53.6385 31.4512 53.8651 31.4512 54.1013V58.8513C31.4512 59.0875 31.545 59.314 31.712 59.4811C31.8791 59.6481 32.1056 59.7419 32.3418 59.7419H34.2219V62.3789H36.0032V59.7419H39.9973V62.3789H41.7786V59.7419H44.4849C44.9139 59.7431 45.3388 59.6591 45.7352 59.4949C46.1315 59.3308 46.4913 59.0896 46.7938 58.7854L51.1335 54.4458H58.997C59.2332 54.4458 59.4598 54.352 59.6268 54.185C59.7938 54.0179 59.8876 53.7914 59.8876 53.5552V48.8052C59.8876 48.569 59.7938 48.3424 59.6268 48.1754C59.4598 48.0084 59.2332 47.9146 58.997 47.9146ZM36.0032 48.901H39.9973V53.2113H36.0032V48.901ZM58.1064 52.6646H50.7645C50.5283 52.6646 50.3018 52.7585 50.1349 52.9255L45.5343 57.5259C45.3969 57.6642 45.2333 57.7738 45.0532 57.8484C44.873 57.9231 44.6799 57.9612 44.4849 57.9607H33.2324V54.9919H43.5012C43.7374 54.9919 43.9639 54.898 44.1309 54.731L48.7314 50.1306C48.8689 49.9923 49.0324 49.8827 49.2125 49.8081C49.3927 49.7334 49.5858 49.6953 49.7808 49.6958H58.1064V52.6646Z" fill="#087BA8"/>
<path d="M33.1846 66.585H43.0705C43.3067 66.585 43.5333 66.4911 43.7003 66.3241C43.8673 66.1571 43.9611 65.9305 43.9611 65.6943C43.9611 65.4581 43.8673 65.2316 43.7003 65.0646C43.5333 64.8975 43.3067 64.8037 43.0705 64.8037H33.1846C32.9484 64.8037 32.7218 64.8975 32.5548 65.0646C32.3878 65.2316 32.2939 65.4581 32.2939 65.6943C32.2939 65.9305 32.3878 66.1571 32.5548 66.3241C32.7218 66.4911 32.9484 66.585 33.1846 66.585Z" fill="#00415D"/>
<path d="M29.0112 66.585H29.9589C30.1951 66.585 30.4216 66.4911 30.5886 66.3241C30.7556 66.1571 30.8495 65.9305 30.8495 65.6943C30.8495 65.4581 30.7556 65.2316 30.5886 65.0646C30.4216 64.8975 30.1951 64.8037 29.9589 64.8037H29.0112C28.775 64.8037 28.5485 64.8975 28.3815 65.0646C28.2144 65.2316 28.1206 65.4581 28.1206 65.6943C28.1206 65.9305 28.2144 66.1571 28.3815 66.3241C28.5485 66.4911 28.775 66.585 29.0112 66.585Z" fill="#00415D"/>
<path d="M72.8954 57.1743H67.3866C67.1739 57.1743 66.9632 57.2162 66.7666 57.2976C66.57 57.3791 66.3914 57.4984 66.241 57.6489C66.0905 57.7993 65.9712 57.9779 65.8898 58.1745C65.8083 58.3711 65.7664 58.5817 65.7664 58.7945V59.1794H62.9808C62.7681 59.1794 62.5574 59.2213 62.3608 59.3028C62.1642 59.3842 61.9856 59.5035 61.8351 59.654C61.6847 59.8045 61.5653 59.9831 61.4839 60.1797C61.4025 60.3763 61.3606 60.587 61.3606 60.7998V62.482H50.6004C50.4987 62.1918 50.3095 61.9403 50.0588 61.7622C49.8082 61.584 49.5084 61.4881 49.2009 61.4875H26.7176C26.4305 61.4879 26.1497 61.5714 25.9091 61.728C25.6685 61.8846 25.4784 62.1076 25.3619 62.3699H14.6394V60.7998C14.6394 60.3701 14.4687 59.9579 14.1648 59.6541C13.861 59.3503 13.4489 59.1796 13.0192 59.1796H10.2336V58.7945C10.2336 58.5818 10.1917 58.3711 10.1103 58.1745C10.0289 57.9779 9.90957 57.7993 9.75913 57.6489C9.60869 57.4984 9.43009 57.3791 9.23353 57.2977C9.03697 57.2162 8.82629 57.1743 8.61353 57.1743H3.10457C2.67487 57.1743 2.26276 57.345 1.95892 57.6489C1.65507 57.9527 1.48438 58.3648 1.48438 58.7945V74.3786C1.48437 74.5913 1.52628 74.802 1.60771 74.9986C1.68913 75.1952 1.80847 75.3738 1.95892 75.5242C2.10937 75.6747 2.28798 75.794 2.48455 75.8754C2.68112 75.9568 2.8918 75.9988 3.10457 75.9988H8.61338C8.82616 75.9988 9.03686 75.9568 9.23344 75.8754C9.43002 75.794 9.60863 75.6746 9.75909 75.5242C9.90954 75.3737 10.0289 75.1951 10.1103 74.9985C10.1917 74.8019 10.2336 74.5912 10.2336 74.3784V73.9937H13.0192C13.4489 73.9937 13.861 73.823 14.1648 73.5191C14.4687 73.2153 14.6394 72.8032 14.6394 72.3735V70.6909H25.3056C25.4024 70.9893 25.5911 71.2495 25.8447 71.4341C26.0983 71.6187 26.4039 71.7184 26.7176 71.7189H47.7428C47.979 71.7189 48.2056 71.625 48.3726 71.458C48.5396 71.291 48.6334 71.0644 48.6334 70.8282C48.6334 70.592 48.5396 70.3655 48.3726 70.1985C48.2056 70.0314 47.979 69.9376 47.7428 69.9376H27.0144V63.2695H48.9041V69.9376H46.5291C46.2929 69.9376 46.0663 70.0314 45.8993 70.1985C45.7323 70.3655 45.6384 70.592 45.6384 70.8282C45.6384 71.0644 45.7323 71.291 45.8993 71.458C46.0663 71.625 46.2929 71.7189 46.5291 71.7189H49.2009C49.4944 71.7185 49.7812 71.6313 50.0252 71.4681C50.2692 71.305 50.4594 71.0733 50.5719 70.8023H61.3606V72.3733C61.3606 72.803 61.5314 73.2151 61.8352 73.519C62.139 73.8228 62.5511 73.9935 62.9808 73.9935H65.7664V74.3786C65.7664 74.5913 65.8083 74.802 65.8897 74.9986C65.9711 75.1951 66.0904 75.3737 66.2409 75.5242C66.3913 75.6747 66.5699 75.794 66.7665 75.8754C66.963 75.9568 67.1737 75.9988 67.3865 75.9988H72.8954C73.1082 75.9988 73.3189 75.9568 73.5155 75.8754C73.7121 75.794 73.8907 75.6746 74.0411 75.5242C74.1916 75.3737 74.3109 75.1951 74.3923 74.9985C74.4738 74.8019 74.5156 74.5912 74.5156 74.3784V58.7945C74.5156 58.3648 74.3449 57.9527 74.0411 57.6489C73.7372 57.345 73.3251 57.1743 72.8954 57.1743ZM8.45233 74.2175H3.26562V70.4012H8.45233V74.2175ZM8.45233 68.62H3.26562V64.5533H8.45233V68.62ZM8.45233 62.772H3.26562V58.9556H8.45233V62.772ZM12.8581 72.2124H10.2336V60.9608H12.8581V72.2124ZM25.2332 68.9097H14.6394V64.1519H25.2332V68.9097ZM61.3606 69.021H50.6853V64.2632H61.3606V69.021ZM65.7664 72.2124H63.1419V60.9607H65.7664V72.2124ZM72.7344 74.2175H67.5477V70.4011H72.7344V74.2175ZM72.7344 68.6198H67.5477V64.5531H72.7344V68.6198ZM72.7344 62.7719H67.5477V58.9556H72.7344V62.7719Z" fill="#00415D"/>
<path d="M40.3453 5.22171C39.5915 5.1342 38.8333 5.09017 38.0744 5.08984C27.2376 5.08984 18.4521 13.8949 18.4521 24.7545C18.4521 35.614 27.2376 44.4176 38.0744 44.4176C38.8333 44.4173 39.5915 44.3732 40.3453 44.2857C35.5636 43.7184 31.1562 41.4166 27.9582 37.8168C24.7602 34.2169 22.9938 29.5689 22.9938 24.7537C22.9938 19.9385 24.7602 15.2905 27.9582 11.6907C31.1562 8.09078 35.5636 5.78907 40.3453 5.22171Z" fill="#D4E1F4"/>
<path d="M42.2443 35.0044H33.9046C33.5032 35.0048 33.1184 35.1645 32.8345 35.4483C32.5507 35.7321 32.3911 36.117 32.3906 36.5183V39.0657C32.3911 39.4671 32.5507 39.8519 32.8345 40.1357C33.1184 40.4196 33.5032 40.5792 33.9046 40.5796H42.2443C42.6457 40.5792 43.0305 40.4196 43.3143 40.1357C43.5981 39.8519 43.7578 39.4671 43.7582 39.0657V36.5183C43.7578 36.117 43.5981 35.7321 43.3143 35.4483C43.0305 35.1645 42.6457 35.0048 42.2443 35.0044ZM34.2074 36.8211H37.1661V38.7629H34.2074V36.8211ZM41.9415 38.7629H38.9828V36.8211H41.9415V38.7629Z" fill="#087BA8"/>
<path d="M37.9578 8.9292C29.2357 8.9292 22.1396 16.0394 22.1396 24.779C22.1396 25.0199 22.2354 25.2509 22.4057 25.4213C22.5761 25.5916 22.8071 25.6873 23.048 25.6873H28.4304C28.6713 25.6873 28.9024 25.5916 29.0727 25.4213C29.2431 25.2509 29.3388 25.0199 29.3388 24.779C29.3388 22.5198 30.2362 20.3532 31.8337 18.7557C33.4312 17.1582 35.5978 16.2608 37.857 16.2608C40.1161 16.2608 42.2828 17.1582 43.8802 18.7557C45.4777 20.3532 46.3752 22.5198 46.3752 24.779C46.3752 25.0199 46.4709 25.2509 46.6412 25.4213C46.8116 25.5916 47.0426 25.6873 47.2835 25.6873H52.8683C53.1092 25.6873 53.3403 25.5916 53.5106 25.4213C53.681 25.2509 53.7767 25.0199 53.7767 24.779C53.7759 16.0394 46.6799 8.9292 37.9578 8.9292ZM27.5608 23.8706H23.9853C24.1398 21.4446 24.925 19.101 26.2632 17.0715L29.1851 19.1556C28.2655 20.5704 27.7077 22.1896 27.5608 23.8706ZM30.303 17.7217L27.3597 15.6222C28.7924 13.9564 30.5953 12.6495 32.624 11.806L33.792 15.2614C32.4711 15.8308 31.2829 16.6687 30.303 17.7217ZM35.5176 14.6938L34.3448 11.2239C36.7824 10.5682 39.3526 10.5879 41.7799 11.281L40.5921 14.7954C38.9357 14.3378 37.191 14.3029 35.5176 14.6938ZM42.2946 15.4316L43.4907 11.8929C45.5197 12.7733 47.3127 14.1197 48.7241 15.8226L45.6638 18.0057C44.7295 16.9252 43.5826 16.0489 42.2946 15.4313V15.4316ZM48.1518 23.8709C48.0162 22.3177 47.5296 20.8156 46.7287 19.4779L49.7921 17.2924C51.0456 19.271 51.7811 21.5332 51.9309 23.8706L48.1518 23.8709Z" fill="#087BA8"/>
<path d="M38.0742 0C24.4523 0 13.3701 11.1048 13.3701 24.7545C13.3701 38.4042 24.4523 49.509 38.0742 49.509C51.6961 49.509 62.7783 38.4041 62.7783 24.7545C62.7783 11.1049 51.6961 0 38.0742 0ZM38.0742 47.6923C25.4541 47.6923 15.1869 37.4024 15.1869 24.7545C15.1869 12.1066 25.4541 1.81673 38.0742 1.81673C50.6943 1.81673 60.9616 12.1066 60.9616 24.7545C60.9616 37.4024 50.6943 47.6923 38.0742 47.6923Z" fill="#00415D"/>
<path d="M38.0744 18.6572C37.8335 18.6572 37.6025 18.7529 37.4321 18.9233C37.2618 19.0936 37.1661 19.3247 37.1661 19.5656V25.5752C36.6297 25.7636 36.165 26.1139 35.8363 26.5777C35.5076 27.0415 35.3311 27.596 35.3311 28.1645C35.3311 28.733 35.5076 29.2875 35.8363 29.7513C36.165 30.2151 36.6297 30.5654 37.1661 30.7538V32.6462C37.1661 32.8871 37.2618 33.1182 37.4321 33.2885C37.6025 33.4589 37.8335 33.5546 38.0744 33.5546C38.3153 33.5546 38.5464 33.4589 38.7167 33.2885C38.8871 33.1182 38.9828 32.8871 38.9828 32.6462V30.7538C39.5192 30.5654 39.9838 30.2151 40.3125 29.7513C40.6412 29.2875 40.8178 28.733 40.8178 28.1645C40.8178 27.596 40.6412 27.0415 40.3125 26.5777C39.9838 26.1139 39.5192 25.7636 38.9828 25.5752V19.5656C38.9828 19.3247 38.8871 19.0936 38.7167 18.9233C38.5464 18.7529 38.3153 18.6572 38.0744 18.6572ZM38.0744 29.0951C37.8902 29.0959 37.7099 29.042 37.5563 28.9402C37.4028 28.8384 37.2829 28.6933 37.2118 28.5234C37.1408 28.3534 37.1218 28.1661 37.1573 27.9854C37.1927 27.8046 37.2811 27.6384 37.4111 27.5078C37.541 27.3773 37.7069 27.2883 37.8875 27.2521C38.0681 27.2158 38.2554 27.234 38.4257 27.3043C38.596 27.3747 38.7416 27.4939 38.844 27.6471C38.9464 27.8002 39.0011 27.9803 39.0011 28.1645C39.0014 28.4107 38.9039 28.647 38.7302 28.8214C38.5565 28.9959 38.3206 29.0943 38.0744 29.0951Z" fill="#087BA8"/>
<path d="M38.0741 4.18213C27.9683 4.18213 19.5455 11.5366 17.854 21.1837C17.8306 21.3147 17.8361 21.4492 17.8703 21.5778C17.9044 21.7064 17.9663 21.8259 18.0516 21.928C18.1369 22.0301 18.2435 22.1123 18.364 22.1687C18.4845 22.2252 18.6158 22.2546 18.7489 22.2548C18.9633 22.2542 19.1706 22.178 19.3343 22.0395C19.4979 21.901 19.6075 21.7092 19.6436 21.4979C21.1865 12.7028 28.8634 5.99886 38.0741 5.99886C48.393 5.99886 56.7879 14.4126 56.7879 24.7544C56.7879 35.0961 48.393 43.5106 38.0741 43.5106C28.6119 43.5106 20.7697 36.436 19.5314 27.2876C19.5032 27.0687 19.3963 26.8675 19.2308 26.7214C19.0652 26.5754 18.8522 26.4945 18.6314 26.4939C18.5016 26.494 18.3733 26.5219 18.2552 26.5757C18.1371 26.6295 18.0318 26.7079 17.9465 26.8057C17.8612 26.9035 17.7978 27.0184 17.7605 27.1427C17.7232 27.2671 17.713 27.3979 17.7304 27.5265C19.0857 37.5638 27.6916 45.3273 38.0741 45.3273C49.3947 45.3273 58.6047 36.0986 58.6047 24.7551C58.6047 13.4116 49.3947 4.18213 38.0741 4.18213Z" fill="#00415D"/>
</svg>

<svg width="76" height="76" viewBox="0 0 76 76" fill="none" xmlns="http://www.w3.org/2000/svg"><path d="M58.997 47.915h-9.216a3.243 3.243 0 00-2.31.956l-4.339 4.34H41.78v-4.608c-.001-.808-.677-.62-1.485-.62h-4.588c-.808 0-1.483-.188-1.484.62v4.608h-1.88a.89.89 0 00-.89.89v4.75a.89.89 0 00.89.89h1.88v2.638h1.781v-2.637h3.994v2.637h1.782v-2.637h2.706a3.243 3.243 0 002.309-.957l4.34-4.34h7.863a.89.89 0 00.89-.89v-4.75a.89.89 0 00-.89-.89zm-22.994.986h3.994v4.31h-3.994v-4.31zm22.103 3.764h-7.342a.89.89 0 00-.63.26l-4.6 4.6a1.473 1.473 0 01-1.05.436H33.233v-2.97h10.27a.89.89 0 00.629-.26l4.6-4.6a1.474 1.474 0 011.05-.435h8.325v2.969z" fill="#087BA8"/><path d="M33.185 66.585h9.886a.89.89 0 000-1.781h-9.886a.89.89 0 100 1.781zm-4.174 0h.948a.89.89 0 000-1.781h-.948a.89.89 0 100 1.781z" fill="#00415D"/><path d="M72.895 57.174h-5.508a1.62 1.62 0 00-1.62 1.62v.385H62.98a1.62 1.62 0 00-1.62 1.62v1.683H50.6a1.486 1.486 0 00-1.4-.995H26.718a1.486 1.486 0 00-1.356.883H14.639V60.8a1.62 1.62 0 00-1.62-1.62h-2.785v-.386a1.62 1.62 0 00-1.62-1.62h-5.51a1.62 1.62 0 00-1.62 1.62V74.38A1.62 1.62 0 003.104 76h5.51a1.62 1.62 0 001.62-1.62v-.385h2.785a1.62 1.62 0 001.62-1.62V70.69h10.667a1.487 1.487 0 001.412 1.028h21.025a.89.89 0 000-1.781H27.014v-6.669h21.89v6.669H46.53a.89.89 0 100 1.78h2.672a1.486 1.486 0 001.37-.916h10.79v1.571a1.62 1.62 0 001.62 1.62h2.785v.386a1.62 1.62 0 001.62 1.62h5.51a1.621 1.621 0 001.62-1.62V58.793a1.62 1.62 0 00-1.62-1.62zM8.452 74.218H3.266V70.4h5.186v3.817zm0-5.598H3.266v-4.067h5.186v4.067zm0-5.848H3.266v-3.816h5.186v3.816zm4.406 9.44h-2.624V60.961h2.624v11.251zm12.375-3.302H14.64v-4.758h10.594v4.758zm36.128.111H50.685v-4.758h10.676v4.758zm4.405 3.191h-2.624V60.961h2.624v11.251zm6.968 2.005h-5.186v-3.816h5.186v3.817zm0-5.597h-5.186v-4.067h5.186v4.067zm0-5.848h-5.186v-3.816h5.186v3.816z" fill="#00415D"/><path d="M40.345 5.222a19.767 19.767 0 00-2.27-.132c-10.837 0-19.623 8.805-19.623 19.665 0 10.859 8.786 19.663 19.622 19.663.76 0 1.518-.045 2.271-.132a19.669 19.669 0 010-39.064z" fill="#D4E1F4"/><path d="M42.244 35.004h-8.34a1.516 1.516 0 00-1.513 1.514v2.548a1.516 1.516 0 001.514 1.514h8.34a1.515 1.515 0 001.513-1.514v-2.548a1.516 1.516 0 00-1.514-1.514zm-8.037 1.817h2.96v1.942h-2.96V36.82zm7.734 1.942h-2.958V36.82h2.959v1.942zM37.958 8.93c-8.722 0-15.818 7.11-15.818 15.849a.909.909 0 00.908.908h5.382a.908.908 0 00.909-.908 8.518 8.518 0 1117.036 0 .909.909 0 00.908.908h5.585a.908.908 0 00.909-.908c-.001-8.74-7.097-15.85-15.82-15.85zM27.56 23.87h-3.576c.155-2.425.94-4.769 2.278-6.799l2.922 2.085a10.297 10.297 0 00-1.624 4.715zm2.742-6.148l-2.943-2.1a14.066 14.066 0 015.264-3.816l1.168 3.455a10.4 10.4 0 00-3.489 2.46zm5.215-3.028l-1.173-3.47a13.915 13.915 0 017.435.057l-1.188 3.514a10.277 10.277 0 00-5.074-.101zm6.777.738l1.196-3.54a14.073 14.073 0 015.233 3.93l-3.06 2.184a10.397 10.397 0 00-3.37-2.575zm5.857 8.439a10.295 10.295 0 00-1.423-4.393l3.063-2.186a13.96 13.96 0 012.139 6.579h-3.78z" fill="#087BA8"/><path d="M38.074 0C24.452 0 13.37 11.105 13.37 24.755c0 13.65 11.082 24.754 24.704 24.754s24.704-11.105 24.704-24.755C62.778 11.104 51.696 0 38.074 0zm0 47.692c-12.62 0-22.887-10.29-22.887-22.938 0-12.647 10.267-22.937 22.887-22.937 12.62 0 22.888 10.29 22.888 22.938 0 12.647-10.268 22.937-22.888 22.937z" fill="#00415D"/><path d="M38.074 18.657a.908.908 0 00-.908.909v6.01a2.745 2.745 0 000 5.178v1.892a.908.908 0 101.817 0v-1.892a2.744 2.744 0 000-5.179v-6.01a.908.908 0 00-.909-.908zm0 10.438a.93.93 0 11-.008-1.86.93.93 0 01.008 1.86z" fill="#087BA8"/><path d="M38.074 4.182c-10.106 0-18.528 7.355-20.22 17.002a.91.91 0 001.48.855.91.91 0 00.31-.541c1.543-8.795 9.22-15.5 18.43-15.5 10.319 0 18.714 8.415 18.714 18.756 0 10.342-8.395 18.757-18.714 18.757-9.462 0-17.304-7.075-18.543-16.223a.91.91 0 00-1.276-.712.91.91 0 00-.525.95c1.356 10.038 9.962 17.801 20.344 17.801 11.32 0 20.53-9.228 20.53-20.572 0-11.343-9.21-20.573-20.53-20.573z" fill="#00415D"/></svg>
